!!!!SEGMENT: 056-1a-Sm-001.krn
!!!COM: Chopin, Fryderyk
!!!OTL: Mazourka No. 1.
!!!OPS: Op. 56
!!!PTL: Quatre Mazurkas
!!!NIFC-rismID: 1001007668
!!!NIFC-shelfmark: PL-Wbfc 3683/n
!!!PPR: M. Schlesinger
!!!PPP: Paris
!!!OMD: Allegro non tanto.
**kern	**kern	**dynam
*part1	*part1	*part1
*staff2	*staff1	*
*clefF4	*clefG2	*
*k[f#c#g#d#a#]	*k[f#c#g#d#a#]	*
*B:	*B:	*
*M3/4	*M3/4	*
*	*	*
=1-	=1-	=1-
*	*^	*
!	!slur:problem:pionowy łuk od 2g# do 2.e	!	!
(>8eL	(>2g#	2.e	p
8c#J	.	.	.
4G#	.	.	.
4A#	4f#	.	.
=2	=2	=2	=2
!	!slur:problem:pionowy łuk od 8.f# do 2.d#	!	!
8BML	8.f#L	2.d#	.
8A#J	.	.	.
.	16f#Jk	.	.
4B	4f#	.	.
4c#y	4f#)	.	.
=3	=3	=3	=3
!	!slur:problem:pionowy łuk od 8.f# do 2.dn	!	!
8dnL	(>8.f#L	2.dn	.
8BJ	.	.	.
.	16f#Jk	.	.
4F#	4f#	.	.
4G#	4e	.	.
=4	=4	=4	=4
!	!slur:problem:pionowy łuk od 8.e do 2.c#	!	!
8AnML	8.eL	2.c#	.
8G#J	.	.	.
.	16eJk	.	.
4A	4e	.	.
4Bny	4e)	.	.
=5	=5	=5	=5
!	!slur:problem:pionowy łuk od 8.e do 2.cn	!	!
8cnL	(>8.eL	2.cn	.
8AnJ	.	.	.
.	16eJk	.	.
!	!	!	!LO:HP:a
4E	4.e	.	>
4F#	.	.	.
!	!LO:TX:b:i:t=dol.	!	!
.	.	.	.
.	[<8dn	.	]
!!LO:LB:g=original
=6	=6	=6	=6
*^	*	*	*
2.Gn)	4r	8.dnXL]	2.B	.
.	.	16eJk	.	.
.	[>2Dn [2GGn	4f#	.	.
.	.	4gn	.	.
=7	=7	=7	=7	=7
2.An	4DnX] 4GGnX]	8.eL	2.cn	.
.	.	16f#Jk	.	.
*ped	*	*	*	*
.	[>2D [2GG	4gn	.	.
.	.	4an 4f#	.	.
*Xped	*	*	*	*
=8	=8	=8	=8	=8
*ped	*	*	*	*
!	!	!	!diminuendo na górnej pięciolinii:problem	!
2.B	4DnX] 4GGnX]	8.bL	2gn	<
.	.	16ddnJk	.	.
.	[>2D [2GG	2dd	.	[
.	.	.	4dn)	.
*Xped	*	*	*	*
=9	=9	=9	=9	=9
!	!	!	!slur:problem:pionowy łuk od 8.e do 2.cn	!
(<8cnL	2.DnX] 2.GGnX_	(>8.eL	2.cn	.
8AnJ	.	.	.	.
.	.	16eJk	.	.
4E	.	4.e	.	.
4F#	.	.	.	.
.	.	[<8dn	.	.
=10	=10	=10	=10	=10
2.Gn)	4DnX] 4GGnX]	8.dnXL]	2.B	.
.	.	16eJk	.	<
.	[>2D [2GG	4f#	.	.
.	.	4gn	.	.
=11	=11	=11	=11	=11
2.An	4DnX] 4GGnX]	8.eL	2.cn	.
.	.	16f#Jk	.	.
.	[>2D [2GG	4gn	.	.
.	.	4an 4f#	.	.
.	.	.	.	[
*v	*v	*	*	*
!!LO:LB:g=original
=12	=12	=12	=12
!	!LO:N:vis=2.	!	!
4B 4DnX] 4GGnX]	8.bL	2b (>2e#X	<
.	16cc#Jk	.	.
4GG	4cc##X	.	.
[4FF#	4dd#	4f#	.
=13	=13	=13	=13
*	*	*^	*
*ped	*	*	*	*
!	!	!	!note position:problem:2b za 4g# 4en	!
4FF#'] 4FFF#	8eeL	2b)	4g#yX\ 4eny	f
.	8cc#J	.	.	.
4.F#^	4g#	.	2e\	<
.	4ryy	4a#/	.	.
*Xped	*	*	*	*
8F#	.	.	.	.
*	*v	*v	*v	*
*clefG2	*	*
=14	=14	=14
*^	*^	*
!LO:N:vis=2	!	!	!	!
8F#L	2F#	8f#L	4d#	.
16r	.	16r	.	.
16f#Jk	.	16g#Jk	.	.
[2f#^	.	4a#	2d#	.
.	[4F#	4b	.	.
=15	=15	=15	=15	=15
8f#L]	2F#]	8g#L	4e	.
16r	.	16r	.	.
16f#Jk	.	16a#Jk	.	.
2f#^	.	4b 4g#	2e	.
.	.	.	.	[
.	4F#	4cc#` 4a#	.	.
*v	*v	*	*	*
*	*v	*v	*
*clefF4	*	*
=16	=16	=16
*ped	*	*
8BB	(>8dd#L) 8b 8d#	.
16r	16r	[
16d#	16ff#Jk 16b 16f#	.
*Xped	*	*
4d#	4ff#/ 4b 4f#	.
4e	4gg#/ 4b 4g#	>
=17	=17	=17
8d#L	8ff#L) 8b 8f#	]
16r	16r	.
16BJk	(>16dd#Jk 16f# 16d#	.
4G#	4b 4g# 4d#	.
4c#	4ee^< 4g# 4e	.
.	.	.
!!LO:LB:g=original
=18	=18	=18
*^	*	*
4ryy	8BL	8dd#^</)L 8g# 8d#	.
.	(>16r	16r	.
.	16G#Jk	(>16bJk 16g# 16d#	.
2B	4E	4g# 4e	.
.	4F# 4BB	4b 4d#	.
*v	*v	*	*
=19	=19	=19
*ped	*	*
8A#\)L	8cc#/)L 8f# 8e	.
16r	16r	.
(>16FF#Jk	(>16dd#Jk	.
4.A#)	4.cc# 4.f# 4.e	.
*Xped	*	*
8B 8BB	8b 8d#	.
=20	=20	=20
*^	*^	*
4ryy	8B 8BB	8b) 8d#	4ryy	.
.	8r	16r	.	.
.	.	(>16g#	.	>
4B	2E	4g#	[2e	.
8c#L	.	8a#L	.	.
8BJ	.	8g#J	.	.
.	.	.	.	]]
*	*	*v	*v	*
=21	=21	=21	=21
*ped	*	*	*
4ryy	8A#L< 8F#	8f#L/ 8e]	]
.	16r	16r	.
.	16FF#Jk	16cc#Jk	.
2A#	4A#	4cc# 4f# 4e	.
.	4FF#	4dd# 4f# 4e	.
*Xped	*	*	*
.	.	.	.
*v	*v	*	*
=22	=22	=22
4B 4BB	4b 4d#	.
4B 4E	2g#) 2e	>
4r	.	.
.	.	]]
=23	=23	=23
*	*^	*
!LO:N:vis=2.	!	!	!
8e>L	(>2g#	2.e	p
8c#J	.	.	.
4G#	.	.	.
4A#	4f#	.	.
!!LO:PB:g=original
=24	=24	=24	=24
8BML	8.f#L	2.d#	.
8A#J	.	.	.
.	16f#Jk	.	.
4B	4f#	.	.
4c#y	4f#)	.	.
=25	=25	=25	=25
!LO:N:vis=2.	!	!	!
8dn>L	(>8.f#L	2.dn	.
8BJ	.	.	.
.	16f#Jk	.	.
4F#	4f#	.	.
4G#	4e	.	.
=26	=26	=26	=26
8AnML	8.eL	2.c#	.
8G#J	.	.	.
.	16eJk	.	.
4A	4e	.	.
4Bny	4e)	.	.
=27	=27	=27	=27
!LO:N:vis=2.	!	!	!
8cn>L	(>8.eL	2.cn	.
8AnJ	.	.	.
.	16eJk	.	.
!	!	!	!LO:HP:a
4E	4.e	.	>
4F#	.	.	.
.	[8dn	.	]
=28	=28	=28	=28
*^	*	*	*
2.Gn	4r	8.dnXL]	2.B	.
.	.	16eJk	.	.
.	[>2Dn [2GGn	4f#	.	.
.	.	4gn	.	.
=29	=29	=29	=29	=29
2.An	4DnX] 4GGnX]	8.eL	2.cn	.
*ped	*	*	*	*
.	.	16f#Jk	.	.
.	[>2D [2GG	4gn	.	.
.	.	4an 4f#	.	.
*Xped	*	*	*	*
!!LO:LB:g=original
=30	=30	=30	=30	=30
2.B	4DnX] 4GGnX]	8.bL	2gn	.
.	.	16ddnJk	.	.
*ped	*	*	*	*
.	2D 2GG	2dd	.	.
.	.	.	4dn)	.
*Xped	*	*	*	*
=31	=31	=31	=31	=31
*ped	*	*	*	*
!LO:N:vis=2.	!	!	!	!
!mixed beam:problem	!	!	!	!
8cn\L\	[2.D [2.GG	(>8.eL	2.cn	[
8An/J	.	.	.	.
.	.	16eJk	.	.
!	!	!	!	!LO:HP:a
4E	.	4.e	.	>
*Xped	*	*	*	*
4F#	.	.	.	.
.	.	[8dn	.	]
=32	=32	=32	=32	=32
2.Gn	4DnX] 4GGnX]	8.dnXL]	2.B	.
.	.	16eJk	.	.
.	[>2D [2GG	4f#	.	<
.	.	4gn	.	.
=33	=33	=33	=33	=33
*ped	*	*	*	*
2.An	4DnX] 4GGnX]	8.eL	2.cn	.
.	.	16f#Jk	.	.
.	[>2D [2GG	4gn	.	.
*Xped	*	*	*	*
.	.	4an 4f#	.	.
.	.	.	.	[[
*v	*v	*	*	*
=34	=34	=34	=34
!	!LO:N:vis=2.	!	!
*ped	*	*	*
4B 4DnX] 4GGnX]	8.bL	2b 2e#X	<
.	16cc#Jk	.	.
(<4GG	4cc##X	.	.
*Xped	*	*	*
[4FF#	4dd#	(>4f#	.
=35	=35	=35	=35
*	*	*^	*
*ped	*	*	*	*
!LO:S:s=1:note:problem:note-level slur	!	!	!note position:problem:2b za 4g# 4e	!
4FF#'<]) 4FFF#'<	8eeL	2b)	4g#\ 4e	f
.	8cc#Jk	.	.	.
4.F#	4g#	.	2e\	.
.	4ryy	4a#/	.	.
8F#	.	.	.	.
*	*v	*v	*v	*
*clefG2	*	*
!!LO:LB:g=original
=36	=36	=36
*^	*^	*
!LO:N:vis=2	!	!	!	!
8F#L	2F#	8f#L	4d#	<
16r	.	16r	.	.
16f#Jk	.	16g#Jk	.	.
[<2f#^	.	4a#	2d#	.
.	[4F#	4b	.	.
=37	=37	=37	=37	=37
8f#L]	2F#]	8g#L	4e	.
16r	.	16r	.	.
16f#Jk	.	16a#Jk	.	.
2f#^	.	4b 4g#	2e	.
.	4F#	4cc# 4a#	.	.
.	.	.	.	[
*v	*v	*	*	*
*	*v	*v	*
*clefF4	*	*
=38	=38	=38
*ped	*	*
8BB	8dd#)L 8b 8d#	.
16r	16r	.
16d#	(>16ff#Jk 16b 16f#/	.
*Xped	*	*
4d#	4ff#/ 4b 4f#	.
4e	4gg#/ 4b 4g#	>
=39	=39	=39
8d#L	8ff#)L/ 8b 8f#	.
16r	16r	]
16BJk	(>16dd#Jk 16f# 16d#	.
4G#	4b 4g# 4d#	.
4c#	4ee 4g# 4e	>
=40	=40	=40
*^	*	*
4ryy	8BL	8dd# 8g# 8d#L)/	]
.	16r	16r	.
.	(>16G#Jk	(>16bJk 16g# 16d#	.
2B	4E	4g# 4d#	.
.	4F# 4BB	4b 4d#	.
*v	*v	*	*
=41	=41	=41
*ped	*	*
8A#X)L\	8cc#)L/ 8f# 8e	.
16r	16r	.
(>16FF#Jk	(>16dd#Jk	.
4.A#)	4.cc# 4.f# 4.e	.
8B 8BB	8b 8d#	.
!!LO:LB:g=original
=42	=42	=42
*^	*^	*
4ryy	8B'> 8BB'>	8b) 8d#	4ryy	.
.	8r	16r	.	.
.	.	16g#(>	.	.
4B	2E	4g#	2e[	>
8c#L	.	8a#L	.	.
8BJ	.	8g#J	.	]
*	*	*v	*v	*
=43	=43	=43	=43
*ped	*	*	*
4ryy	8A#L 8F#\	8f#L/ 8e]	.
.	16r	16r	.
.	16FF#Jk	16cc#Jk	.
2A#	4A#	4cc# 4f# 4e	.
.	4FF#	4dd# 4f# 4e	.
*Xped	*	*	*
*v	*v	*	*
=44	=44	=44
*	*^	*
2B 2BB	4b 4d#	4ryy	.
!	!	!LO:TX:a:i:t=ritenuto.	!
!	!	!	!LO:HP:a
.	2a#	4d#(<	>
4F# 4C-X	.	[4e-X))	]
*	*v	*v	*
=!||45	=!||45	=!||45
*k[fn-cn-gn-dn-an-b-e-a-]	*k[fn-cn-gn-dn-an-b-e-a-]	*
*	*^	*
*ped	*	*	*
!	!	!LO:TX:a:B:t=leggiero.	!
!	!	!LO:TX:a:B:t=Poco piu mosso	!
4G 4BB-	(>8b-L	4e-]	p
.	8cc	.	.
4r	8b-	2ryy	.
.	8ff	.	.
4r	8ee-	.	.
.	8aa-J	.	.
*	*v	*v	*
=46	=46	=46
4r	8ggL>	.
.	8ccc	.
!LO:S:s=1:note:problem:note-level slur	!	!
(>4g> 4e-> 4B->	8bb-	.
.	8ddd	.
4BB-)	8eee-	.
*Xped	*	*
.	8cccJ	.
=47	=47	=47
4r	8bb-L>	.
.	8ccc	.
*ped	*	*
!LO:S:s=1:note:problem:note-level slur	!	!
(>4a-> 4d> 4B->	8bb-	.
.	8gg	.
4BB-)	8aa-	.
*Xped	*	*
.	8ff)J	.
!!LO:LB:g=original
=48	=48	=48
*^	*	*
*ped	*	*	*
4ryy	4E-	(>8ggL	.
!key problem: wyświetla się drugi klucz wiolinowy	!	!	!
*clefG2	*clefG2	*	*
.	.	8dd	.
!note position:problem:2e- za 4g 4B-	!	!	!
2e-	4g 4B-/(<	8ee-M	.
*Xped	*	*	*
.	.	8dd	.
.	4f#X 4An/)	8ee-	.
*clefF4	*clefF4	*	*
.	.	8ccJ	.
*v	*v	*	*
=49	=49	=49
4r	8b-L	.
.	8cc	.
*ped	*	*
(>4g 4e- 4B-	8b-	.
.	8ff	.
4E-)	8ee-	.
.	8aa-J	.
=50	=50	=50
4r	8ggL	.
.	8ccc	.
(>4g 4B-	8bb-	.
.	8ddd	.
4E-)	8eee-	.
.	8cccJ	.
=51	=51	=51
4r	8bb-L>	.
*Xped	*	*
.	8ccc	.
*ped	*	*
!LO:S:s=1:note:problem:note-level slur	!	!
(>4a-> 4d> 4B->	8bb-	.
.	8gg	.
4E-)	8aa-	.
.	8ffJ	.
=52	=52	=52
4r	8ggL	.
*Xped	*	*
.	8dd	.
*ped	*	*
(>4g 4d-X 4B-	8ee-	.
.	8cc	.
4E-)	8dd-X	.
*Xped	*	*
.	8fJ	.
=53	=53	=53
4r	8e-L<	.
.	8f	.
*ped	*	*
(>4c 4E-	8e-	.
.	8b-	.
4AA-)	8a-	.
*Xped	*	*
.	8dd-X)J	.
!!LO:PB:g=original
=54	=54	=54
4r	8cc(>L<	.
.	8ff	.
*ped	*	*
(>4c 4E-	8ee-	.
.	8gg	.
4AA-)	8aa-	.
.	8ffJ	.
*Xped	*	*
=55	=55	=55
4r	8ee-L<	.
.	8ff	.
*ped	*	*
(>4d-X 4G 4E-	8ee-	.
.	8cc	.
4AA-)	8dd-X	.
.	8b-J	.
=56	=56	=56
*^	*	*
*Xped	*	*	*
4r	4ryy	8ccL<	.
.	.	8g	.
!note position:problem:2A- za 4c 4E-	!	!	!
2A-\	(>4c\ 4E-	8a-M	.
.	.	8g	.
.	4Bn) 4Dny	8a-	.
.	.	8fJ	.
*v	*v	*	*
=57	=57	=57
4r	8e-L<	.
.	8f	.
*ped	*	*
(>4c 4A- 4E-	8e-	.
.	8b-	.
4AA-)	8a-	.
.	8dd-XJ	.
=58	=58	=58
*Xped	*	*58
4r	8ccL	.
.	8ff	.
*ped	*	*
(>4c 4E-	8ee-	.
.	8gg	.
4AA-)	8aa-	.
.	8ffJ	.
=59	=59	=59
*Xped	*	*59
4r	8ee-L	.
.	8ff	.
*ped	*	*
4d-X 4G 4E-	8ee-	.
.	8cc	.
[4AA-	8dd-X	.
*Xped	*	*
.	8b-)J	.
!!LO:LB:g=original
=60	=60	=60
*	*^	*
4AA-]	8cc(>L	4ryy	.
.	8g	.	.
.	8qb-/	.	.
4c 4F	8a-	4e-	.
.	8g	.	.
4A- 4BB-	8f	4dn	.
.	8ccJ	.	.
*	*v	*v	*
=61	=61	=61
4r	8b-L	.
.	8cc	.
*ped	*	*
(>4g 4B-	8b-	.
.	8ff	.
4E-)	8ee-	.
.	8aa-J	.
*Xped	*	*
=62	=62	=62
4r	8ggL	.
.	8ccc	.
*ped	*	*
(>4g 4B-	8bb-	.
.	8ddd	.
4E-)	8eee-	.
.	8cccJ	.
*Xped	*	*
=63	=63	=63
4r	8bb-L	.
.	8ccc	.
*ped	*	*
(>4a- 4d 4B-	8bb-	.
.	8gg	.
4E-)	8aa-	.
.	8ffJ	.
*Xped	*	*
=64	=64	=64
*^	*	*
4ryy	4r	8ggL	.
.	.	8dd	.
*clefG2	*clefG2	*	*
!note position:problem:2e- za 4g 4B-	!	!	!
2e-	(<4g 4B-/	8ee-M	.
.	.	8dd	.
.	4f#X 4An)/	8ee-	.
.	.	8ccJ	.
*clefF4	*clefF4	*	*
*v	*v	*	*
=65	=65	=65
4r	8b-L	.
.	8cc	.
*ped	*	*
(>4g 4B-	8b-	.
.	8ff	.
4E-)	8ee-	.
.	8aa-)J	.
!!LO:LB:g=original
=66	=66	=66
*Xped	*	*
4r	(>8ggL	.
.	8ccc	.
*ped	*	*
(>4g 4B-	8bb-	.
.	8ddd	.
4E-)	8eee-	.
.	8cccJ	.
=67	=67	=67
*Xped	*	*
4r	8bb-L	.
.	8ccc	.
*ped	*	*
(>4a- 4d 4B-	8bb-	.
.	8gg	.
4E-)	8aa-	.
.	8ffJ	.
=68	=68	=68
*Xped	*	*
4r	8ggL	.
.	8dd	.
*ped	*	*
(>4g 4d-X 4B-	8ee-	.
.	8cc	.
4E-)	8dd-X	.
.	8fJ	.
*Xped	*	*
=69	=69	=69
4r	8e-L\	.
.	8f	.
*ped	*	*
(>4c 4Any 4E-	8e-	.
.	8b-	.
4AA-)	8a-	.
.	8dd-XJ	.
*Xped	*	*
=70	=70	=70
4r	8ccL	.
.	8ff	.
*ped	*	*
(>4c 4E-	8ee-	.
.	8gg	.
4AA-)	8aa-	.
.	8ffJ	.
*Xped	*	*
=71	=71	=71
4r	8ee-L	.
.	8ff	.
*ped	*	*
(>4d-X 4G 4E-	8ee-	.
.	8cc	.
4AA-)	8dd-X	.
*Xped	*	*
.	8b-J	.
!!LO:LB:g=original
=72	=72	=72
*^	*	*
4r	4ryy	8ccL\	.
.	.	8g	.
.	.	8qb-/	.
!note position:problem:2A- za 4c 4E-	!	!	!
2A-\	(>4c 4E-	8a-	.
.	.	8g	.
.	4Bn) 4D	8a-	.
.	.	8fJ	.
*v	*v	*	*
=73	=73	=73
4r	8e-L\	.
.	8f	.
*ped	*	*
(>4c 4A- 4E-	8e-	.
.	8b-	.
4AA-)	8a-	.
.	8dd-yJ	.
*Xped	*	*
=74	=74	=74
4r	8ccL	.
.	8ff	.
*ped	*	*
(>4c 4E-	8ee-	.
.	8gg	.
4AA-)	8aa-	.
.	8ffJ	.
*Xped	*	*
=75	=75	=75
2.r	8ee-L	.
.	8cc	.
.	8dd-X	.
.	8ff	.
.	8ee-	.
.	8ccJ	.
=76	=76	=76
2.r	8a-L\	.
.	8b-	.
.	8dd-X	.
.	8cc	.
.	8a-	.
.	8e-J	.
=77	=77	=77
2.r	8f-XL	.
.	8a-	.
.	8e-	.
.	8c	.
.	8f-	.
.	8a-J	.
!!LO:LB:g=original
=78	=78	=78
2.r	8e-L	.
.	8c	.
.	8f-	.
.	8a-	.
.	8e-	.
.	8cJ	.
=79	=79	=79
2.r	8f-XL	.
.	8a-	.
.	8e-	.
.	8c-X	.
.	8f-	.
.	8a-J	.
=80	=80	=80
2.r	8e-L	.
.	8c-X	.
.	8f-X	.
.	8a-	.
.	8e-	.
.	8c-)J	.
=!||81	=!||81	=!||81
*k[f#c#g#d#a#]	*k[f#c#g#d#a#]	*
*	*^	*
!key signatutures:problem:kasowniki przed krzyżykami	!	!	!
!	!LO:TX:a:B:t=Tempo 1.o	!	!
!	!slur:problem:pionowy łuk od 2g# do 2.e	!	!
(>8eL	(>2g#	2.e	.
8c#J	.	.	.
4G#	.	.	.
4A#	4f#	.	.
=82	=82	=82	=82
8BML	8.f#L	2.d#	.
8A#J	.	.	.
.	16f#Jk	.	.
4B	4f#	.	.
4c#)	4f)#	.	.
=83	=83	=83	=83
(>8dnL	(>8.f#L	2.dn	.
8BJ	.	.	.
.	16f#Jk	.	.
4F#	4f#	.	.
4G#	4e	.	.
!!LO:PB:g=original
=84	=84	=84	=84
8AnML	8.eL	2.c#	.
8G#J	.	.	.
.	16eJk	.	.
4A	4e	.	.
4Bny)	4e)	.	.
=85	=85	=85	=85
!	!slur:problem:pionowy łuk od 8.e do 2.cn	!	!
(>8cnL	(>8.eL	2.cn	.
8AnJ	.	.	.
.	16eJk	.	.
4E	4.e	.	.
4F#	.	.	.
.	[8dn	.	.
=86	=86	=86	=86
*^	*	*	*
2.Gn)	4r	8.dnXL]	2.B	.
.	.	16eJk	.	.
.	[>2Dn [2GGn	4f#	.	.
.	.	4gn	.	.
=87	=87	=87	=87	=87
(>2.AnX	4DnX] 4GGnX]	8.eL	2.cn	.
.	.	16f#Jk	.	.
*ped	*	*	*	*
.	[>2D [2GG	4gn	.	.
.	.	4an 4f#	.	.
*Xped	*	*	*	*
=88	=88	=88	=88	=88
*ped	*	*	*	*
2.B	4DnX] 4GGnX]	8.bL	2gn	.
.	.	16ddnJk	.	.
.	[>2D [2GG	2dd	.	.
.	.	.	4dn)	.
*Xped	*	*	*	*
=89	=89	=89	=89	=89
*ped	*	*	*	*
8cnL	2.D_nX 2.GG_nX	(>8.eL	2.cn	[
8AnJ	.	.	.	.
.	.	16eJk	.	.
4E	.	4.e	.	.
*Xped	*	*	*	*
4F#	.	.	.	.
.	.	[<8dn	.	.
!!LO:LB:g=original
=90	=90	=90	=90	=90
!	!	!	!ligature:problem:koniec ligatury w górę	!
2.GnX)	4DnX] 4GGnX]	8.dnXL]	2.B	<
.	.	16eJk	.	.
.	[>2D [2GG	4f#	.	.
.	.	4gn	.	.
=91	=91	=91	=91	=91
*ped	*	*	*	*
2.An	4DnX] 4GGnX]	8.eL	2.cn	.
.	.	16f#Jk	.	.
.	[>2D [2GG	4gn	.	.
.	.	4an 4f#	.	.
.	.	.	.	[
*Xped	*	*	*	*
*v	*v	*	*	*
=92	=92	=92	=92
*ped	*	*	*
!	!LO:N:vis=2.	!	!
4B 4DnX] 4GGnX]	8.bL	2b 2e#X	<
.	16cc#Jk	.	.
4GG	4cc##X	.	.
*Xped	*	*	*
.	.	.	.
[4FF#	4dd#	(>4f#	.
=93	=93	=93	=93
*	*	*^	*
*ped	*	*	*	*
!	!	!	!note position:problem:2b za 4g# 4e	!
4FF#'<] 4FFF#'<	8eeL	2b)	4g#\ 4e	f
.	8cc#J	.	.	.
4.F#	4g#	.	2e\	.
.	4ryy	4a#	.	.
8F#	.	.	.	.
*Xped	*	*	*	*
*	*v	*v	*v	*
*clefG2	*	*
=94	=94	=94
*^	*^	*
!LO:N:vis=2	!	!	!	!
8F#L	2F#	8f#)L	4d#	.
16r	.	16r	.	.
16f#Jk	.	(>16g#Jk	.	.
[2f#^	.	4a#	2d#	.
.	4F#	4b	.	.
=95	=95	=95	=95	=95
8f#L]	2F#	8g#)L	4e	.
16r	.	16r	.	.
16f#Jk	.	(>16a#Jk	.	.
2f#^	.	4b 4g#	2e	.
.	4F#	4cc# 4a#	.	.
*v	*v	*	*	*
*	*v	*v	*
*clefF4	*	*
!!LO:LB:g=original
=96	=96	=96
*ped	*	*
8BB'	8dd#)L 8b 8d#	.
16r	16r	[
16d#	(>16ff#Jk/ 16b 16f#	.
*Xped	*	*
4d#	4ff#/ 4b 4f#	.
4e	4gg#/ 4b 4g#	>
=97	=97	=97
8d#L	8ff#'<)/L 8b'< 8f#'<	]
16r	16r	.
16BJk	(>16dd#Jk 16f# 16d#	.
4G#	4b 4g# 4d#	.
4c#	4ee 4g# 4e	>
=98	=98	=98
*^	*	*
4ryy	8BL	8dd#'<)L/ 8g#'< 8d#'<	]
.	16r	16r	.
.	(>16G#Jk	(>16bJk 16g# 16d#	.
2B	4E	4g# 4e	.
.	4F# 4BB	4b 4d#	.
*v	*v	*	*
=99	=99	=99
8A#)L\	8cc#L 8f# 8e/	.
16r	16r	.
*ped	*	*
(16FF#Jk	16dd#Jk	.
4.A#)	4.cc# 4.f# 4.e	.
*Xped	*	*
8B 8BB	8b 8d#	.
=100	=100	=100
*^	*^	*
4ryy	8B 8BB	8b'<) 8d#'<	4ryy	.
.	8r	16r	.	.
.	.	(>16g#	.	.
(>4B	2E	4g#	2e	>
8c#L	.	8a#L	.	.
8BJ	.	8g#J	.	]
=101	=101	=101	=101	=101
4ryy	8A#'>L 8F#'>)\	8f#')L	4e	.
.	16r	16r	.	.
*ped	*	*	*	*
.	(>16FF#Jk	(>16cc#Jk	.	.
2A#)	4A#	4cc# 4f# 4e	2ryy	.
.	4FF#	4dd# 4f# 4e	.	.
!!LO:LB:g=original
=102	=102	=102	=102	=102
!	!	!	!LO:TX:a:i:t=ritenuto.	!
4F#	[4BB	2b	4d#	.
4Gn	8.BBL]	.	8.dnL	.
.	16CnJk	.	16eJk	>
!	!	!	!ligature:problem:nie wyświetla się od 4cn	!
[4F#	[4Dn	4an)	[4cn	]
*v	*v	*	*	*
*	*v	*v	*
=!||103	=!||103	=!||103
*k[f#]	*k[f#]	*
!key signatures:problem:kasowniki za krzyżykiem f#	!	!
!	!LO:TX:a:B:t=Poco piu mosso.	!
4c>] 4F#] 4D]	(>8dL	.
.	8e	.
*ped	*	*
(4B 4G 4D	8d	.
!	!LO:TX:i:t=leggiero.	!
.	8a	.
4GG)	8g	.
*Xped	*	*
.	8ccJ	.
=104	=104	=104
4r	8bL	.
.	8ee	.
*ped	*	*
(4B 4D	8dd	.
.	8ff#	.
4GG)	8gg	.
*Xped	*	*
.	8eeJ	.
=105	=105	=105
4r	8ddL	.
.	8ee	.
*ped	*	*
(4c 4F# 4D	8dd	.
.	8b	.
4GG)	8cc	.
*Xped	*	*
.	8aJ	.
=106	=106	=106
4r	8bL	.
.	8f#	.
(4B 4D	8gM<	.
.	8f#	.
4A#X 4C#X)	8g	.
.	8eJ	.
=107	=107	=107
4r	8dL	.
.	8e	.
*ped	*	*
(4B 4D	8d	.
.	8a	.
4GG)	8g	.
*Xped	*	*
.	8ccJ	.
!!LO:LB:g=original
=108	=108	=108
4r	8bL	.
.	8ee	.
*ped	*	*
(4B 4D	8dd	.
.	8ff#	.
4GG)	8gg	.
*Xped	*	*
.	8eeJ	.
=109	=109	=109
4r	8ddL	.
.	8ee	.
*ped	*	*
(4c 4F# 4D	8dd	.
.	8b	.
[4GG)	8cc	.
.	8aJ	.
=110	=110	=110
*	*^	*
(>4GG]	8bL	4ryy	.
.	8f#	.	.
*Xped	*	*	*
.	8qa/	.	.
4B 4E	8g	4d	.
.	8f#	.	.
4G) 4AA	8e	4c#X	.
.	8bJ	.	.
*	*v	*v	*
=111	=111	=111
4r	8aL	.
.	8b	.
*ped	*	*
(4f# 4A	8a	.
.	8ee	.
4D)	8dd	.
.	8ggJ	.
*Xped	*	*
=112	=112	=112
4r	8ff#L	.
.	8bb	.
*ped	*	*
(4f# 4A	8aa	.
.	8ccc#X	.
4D)	8ddd	.
.	8bbJ	.
*Xped	*	*
=113	=113	=113
4r	8aaL	.
.	8bb	.
*ped	*	*
(4g 4c#X 4A	8aa	.
.	8ff#	.
4D)	8gg	.
.	8eeJ	.
*Xped	*	*
!!LO:PB:g=original
=114	=114	=114
4r	8ff#L	.
.	8cc#X	.
(4f# 4A	8ddM	.
.	8cc#	.
4e#X 4G#X)	8dd	.
.	8bJ	.
=115	=115	=115
4r	8aL	.
.	8b	.
*ped	*	*
(4f# 4A	8a	.
.	8ee	.
4D)	8dd	.
*Xped	*	*
.	8ggJ	.
=116	=116	=116
4r	8ff#L	.
.	8bb	.
*ped	*	*
(4f# 4A	8aa	.
.	8ccc#X	.
4D)	8ddd	.
*Xped	*	*
.	8bbJ	.
=117	=117	=117
4r	8aaL	.
.	8bb	.
*ped	*	*
(4g 4c#X 4A	8aa	.
.	8ff#	.
4D)	8gg	.
*Xped	*	*
.	8eeJ	.
=118	=118	=118
4r	8ff#L	.
.	8dd	.
*ped	*	*
(4f# 4cn 4A	8ee	.
.	8b	.
4D)	8cc	.
.	8eJ	.
*Xped	*	*
=119	=119	=119
4r	8dL	.
.	8e	.
*ped	*	*
(4B 4D	8d	.
.	8a	.
4GG)	8g	.
.	8ccJ	.
*Xped	*	*
!!LO:LB:g=original
=120	=120	=120
4r	8bL	.
.	8ee	.
*ped	*	*
(4B 4D	8dd	.
.	8ff#	.
4GG)	8gg	.
.	8eeJ	.
*Xped	*	*
=121	=121	=121
4r	8ddL	.
.	8ee	.
*ped	*	*
(4c 4F# 4D	8dd	.
.	8b	.
4GG)	8cc	.
.	8aJ	.
*Xped	*	*
=122	=122	=122
4r	8bL	.
.	8f#	.
(4B 4D	8gM<	.
.	8f#	.
4A#X 4C#X)	8g	.
.	8eJ	.
=123	=123	=123
4r	8dL	.
.	8e	.
*ped	*	*
(4B 4D	8d	.
.	8a	.
4GG)	8g	.
.	8ccJ	.
*Xped	*	*
=124	=124	=124
4r	8bL	.
.	8ee	.
*ped	*	*
(4B 4D	8dd	.
.	8ff#	.
4GG)	8gg	.
.	8eeJ	.
*Xped	*	*
=125	=125	=125
4r	8ddL	.
.	8ee	.
*ped	*	*
(4c 4F# 4D	8dd	.
.	8b	.
[4GG)	8cc	.
.	8aJ	.
*Xped	*	*
!!LO:LB:g=original
=126	=126	=126
*	*^	*
4GG]	8bL	4ryy	.
.	8f#	.	.
.	8qa/	.	.
4B 4E	8g	4d	.
.	8f#	.	.
4G 4AA	8e	4c#X	.
.	8bJ	.	.
*	*v	*v	*
=127	=127	=127
4r	8aL	.
.	8b	.
*ped	*	*
(4f# 4A	8a	.
.	8ee	.
4D)	8dd	.
.	8ggJ	.
*Xped	*	*
=128	=128	=128
4r	8ff#L	.
.	8bb	.
*ped	*	*
(4f# 4A	8aa	.
.	8ccc#X	.
4D)	8ddd	.
.	8bbJ	.
*Xped	*	*
=129	=129	=129
4r	8aaL	.
.	8bb	.
*ped	*	*
(4g 4c#X 4A	8aa	.
.	8ff#	.
4D)	8gg	.
.	8eeJ	.
*Xped	*	*
=130	=130	=130
4r	8ff#L	.
.	8cc#X	.
(4f# 4A	8ddM	.
.	8cc#	.
4e#X 4G#X)	8dd	.
.	8bJ	.
=131	=131	=131
4r	8aL	.
.	8b	.
*ped	*	*
(4f# 4A	8a	.
.	8ee	.
4D)	8dd	.
.	8ggJ	.
*Xped	*	*
!!LO:LB:g=original
=132	=132	=132
4r	8ff#L	.
.	8bb	.
*ped	*	*
(4f# 4A	8aa	.
.	8ccc#X	.
4D)	8ddd	.
.	8bbJ	.
=133	=133	=133
2.r	8aaL	.
.	8ff#	.
.	8gg	.
.	8bb	.
.	8aa	.
.	8ff#J	.
=134	=134	=134
2.r	8ddL	.
.	8ee	.
.	8gg	.
.	8ff#	.
.	8dd	.
.	8aJ	.
=135	=135	=135
2.r	8b-XL	.
.	8dd	.
.	8a	.
.	8f#	.
.	8b-	.
.	8ddJ	.
=136	=136	=136
2.r	8aL\	.
.	8f#X	.
.	8b-X	.
.	8dd	.
.	8a	.
.	8f#J	.
=137	=137	=137
2.r	8aL\	.
.	8dd-X	.
.	8a-X	.
.	8fny	.
.	8a	.
.	8dd-J	.
!!LO:LB:g=original
=138	=138	=138
2.r	8a-XL	.
.	8f#	.
.	8a	.
.	8dd-X	.
.	8a-	.
.	8f#J	.
=139	=139	=139
2.r	8a-XL	.
.	8cc	.
.	8g	.
.	8e	.
.	8g	.
.	8bnyJ	.
=140	=140	=140
2.r	8f#XL	.
.	8d#X	.
.	8f#	.
.	8b-X	.
.	8fn	.
.	8dnJ	.
=141	=141	=141
2.r	8fnL	.
.	8a	.
.	8e	.
.	8c#X	.
.	8e	.
.	8g#XJ	.
=142	=142	=142
2.r	8d#XL	.
!	!LO:TX:i:t=rallentando.	!
.	8B#X	.
.	8e	.
.	8g#X	.
.	8d#	.
.	8Bn)J	.
!!LO:LB:g=original
=!||143	=!||143	=!||143
*k[f#c#g#d#a#]	*k[f#c#g#d#a#]	*
*	*^	*
!	!LO:TX:a:B:t=Tempo 1.o	!	!
!	!slur:problem:pionowy łuk od 2g# do 2.e	!	!
(8eL	(2g#	2.e	p
8c#J	.	.	.
4G#	.	.	.
4A#	4f#	.	.
=144	=144	=144	=144
8BML	8.f#L	2.d#	.
8A#J	.	.	.
.	16f#Jk	.	.
4B	4f#	.	.
4c#	(>4f#)	.	.
=145	=145	=145	=145
!	!slur:problem:pionowy łuk od 8.f# do 2dn	!	!
8dnL	8.f#L	2.dn	.
8BJ	.	.	.
.	16f#Jk	.	.
4F#	4f#	.	.
4G#	4e	.	.
=146	=146	=146	=146
!	!slur:problem:pionowy łuk od 8.e do 2.c#	!	!
8AnML	8.eL	2.c#	.
8G#J	.	.	.
.	16eJk	.	.
4A	4e	.	.
4B)	4e)	.	.
=147	=147	=147	=147
(>8cnL	(>8.eL	2.cn	.
8AnJ	.	.	.
.	16eJk	.	.
4E	4.e	.	.
4F#	.	.	.
.	[8dn	.	.
=148	=148	=148	=148
*^	*	*	*
2.Gn	4r	8.dnXL]	2.B	.
.	.	16eJk	.	.
*ped	*	*	*	*
.	[>2Dn [2GGn	4f#	.	.
.	.	4gn	.	.
*Xped	*	*	*	*
=149	=149	=149	=149	=149
(2.An)	4DnX] 4GGnX]	8.eL	2.cn	.
.	.	16f#Jk	.	.
*ped	*	*	*	*
.	[>2D [2GG	4gn	.	.
.	.	4an 4f#	.	.
*Xped	*	*	*	*
!!LO:LB:g=original
=150	=150	=150	=150	=150
2.B	4DnX] 4GGnX]	8.bL	2gn	.
.	.	16ddnJk	.	.
*ped	*	*	*	*
.	[>2D [2GG	2dd	.	.
.	.	.	4d#)	.
=151	=151	=151	=151	=151
*ped	*	*	*	*
8cnL	2.DnX_ 2.GGnX_	(>8.eL	2.cn	.
8AnJ	.	.	.	.
.	.	16eJk	.	.
*Xped	*	*	*	*
4E	.	4.e	.	.
4F#)	.	.	.	.
.	.	[8dn	.	.
=152	=152	=152	=152	=152
(2.Gn	4DnX] 4GGnX]	8.dL]	2.B	.
.	.	16eJk	.	.
*ped	*	*	*	*
.	[>2D [2GG	4f#	.	<
.	.	4gn	.	.
*Xped	*	*	*	*
=153	=153	=153	=153	=153
2.An	4DnX] 4GGnX]	8.eL	2.cn	.
.	.	16f#Jk	.	.
*ped	*	*	*	*
.	[>2D [2GG	4gn	.	.
.	.	4an	.	.
.	.	.	.	[
*Xped	*	*	*	*
*v	*v	*	*	*
=154	=154	=154	=154
!	!LO:N:vis=2.	!	!
*ped	*	*	*
4B 4DnX] 4GGnX])	8.bL	2b 2e#X	<
.	16cc#Jk	.	.
*Xped	*	*	*
4GG	4cc##	.	.
[4FF#	4dd#	4f#	.
=155	=155	=155	=155
*	*	*^	*
*ped	*	*	*	*
!	!	!	!note position:problem:2b za 4g# 4e	!
4FF#'<] 4FFF#'<	8.eeL	2b	4g#\ 4e	f
.	16cc#Jk	.	.	.
4.F#	4g#	.	2e\	.
.	4ryy	4a#/	.	.
8F#	.	.	.	.
*	*v	*v	*v	*
*clefG2	*	*
!!LO:LB:g=original
=156	=156	=156
*^	*^	*
!LO:N:vis=2	!	!	!	!
8F#L	2F#	8f#L	4d#	.
16r	.	16r	.	.
16f#Jk	.	16g#Jk	.	.
[2f#^	.	4a#	2d#	.
.	4F#	4b	.	.
=157	=157	=157	=157	=157
8f#L]	2F#	8g#L	4e	.
16r	.	16r	.	.
16f#Jk	.	16a#Jk	.	.
2f#^	.	4b 4g#	2e	.
.	4F#	4cc# 4a#	.	.
*v	*v	*	*	*
*	*v	*v	*
*clefF4	*	*
=158	=158	=158
*ped	*	*
8BB'	8dd#L/ 8b 8d#)	.
16r	16r	.
16d#	(>16ff#Jk 16b 16f#	.
4d#	4ff#/ 4b 4f#	.
4e	4gg#/ 4b 4g#	>
=159	=159	=159
8d#L	8ff#/)L 8b 8f#	]
16r	16r	.
16BJk	(>16dd#Jk 16f# 16d#	.
4G#	4b 4g# 4d#	.
4c#	4ee 4g# 4e	>
=160	=160	=160
*^	*	*
4ryy	8BL	8dd#)L/ 8g# 8d#	]
.	16r	16r	.
.	(>16G#Jk	(>16bJk 16g# 16d#	.
2B	4E	4g# 4e	.
.	4F# 4BB	4b 4d#	.
*v	*v	*	*
=161	=161	=161
8A#)L\	8cc#)L/ 8f# 8e)	.
16r	16r	.
*ped	*	*
(16FF#Jk	(>16dd#Jk	.
4.A#)	4.cc# 4.f# 4.e	.
*Xped	*	*
8B 8BB	8b 8d#	.
!!LO:LB:g=original
=162	=162	=162
*^	*^	*
4ryy	8B 8BB	8b'<) 8d#'<	4ryy	.
.	8r	16r	.	.
.	.	16g#	.	.
(4B	2E	(4g#	2e	>
8c#L	.	8a#L	.	.
8BJ	.	8g#J	.	]
*v	*v	*	*	*
*	*v	*v	*
=163	=163	=163
8A#L 8F#)\	8f#L/ 8e)	.
16r	16r	.
*ped	*	*
(16FF#Jk	(>16cc#Jk	.
4A#)	4cc# 4f# 4e	<
4FF#	4ff#/	.
=164	=164	=164
*	*^	*
2.e 2.c# 2.F#	8ee#XL	2.a#	.
.	8ff#J	.	.
.	16qff#/LL	.	.
.	16qaa#/JJ	.	.
.	4gg#	.	[
.	4ff#	.	>
*Xped	*	*	*
*	*v	*v	*
=165	=165	=165
4r	8bbL 8dd#	p]
.	8ff#J 8an	.
*ped	*	*
[2FF# [2BBB	4dd# 4f#	]
.	4cc# 4e	.
=166	=166	=166
*	*^	*
4FF#] 4BBB]	8bML	8d#L	.
.	8a#XJ	8anJ	.
[2BB [2BBB	4b 4d#	2ryy	.
.	4ff# 4an	.	.
*	*v	*v	*
=167	=167	=167
4BB] 4BBB]	8ee#XL 8g#\	.
.	8cc##XJ 8e#X	.
(<4EE#X 4BBB	4b 4dn	.
4Dn/)	8a#L 8c#X	.
.	8g#J 8B	.
!!LO:LB:g=original
=168	=168	=168
*	*^	*
4r	8f#ML	8A#L	.
.	8e#XJ	8enJ	.
(4E 4FF#	4f# 4A#	2ryy	.
4BBB)	4cc# 4en	.	.
*	*v	*v	*
=169	=169	=169
4r	8bL 8d#	.
.	8f#J 8An	.
4BB 4BBB\	4d#< 4F#<	.
4BB\ 4EE	4c#< 4G#<	.
=170	=170	=170
*	*^	*
!	!	!note position: 2.An za 8B	!
4BB 4FF#\	8B<L	2.An<\	.
.	8d#J	.	.
4BBB\	4f#	.	.
4r	8g#L	.	.
.	8f#J	.	.
*	*v	*v	*
=171	=171	=171
4r	8e#XL 8G#<	.
.	8g#J 8B<	.
*ped	*	*
(>4CC#'	4b 4dn	.
4E#X	8a#XL 8c#	.
*Xped	*	*
.	8g#J 8B	.
=172	=172	=172
*ped	*	*
8F#L)	8f#L 8en 8A#	.
16r	8a# 8c#	.
(16C#Jk	.	.
4FF#)	8cc# 8e	.
.	8ee 8g#	.
4r	8dd# 8f#	.
*Xped	*	*
.	8cc#J 8e	.
=173	=173	=173
*ped	*	*
8BB'L	8dd#)L 8f#	.
16r	16r	.
(>16F#Jk	(>16bJk 16d#	.
4B	4dd# 4f#	.
*Xped	*	*
4E	4ee/ 4g#	.
!!LO:PB:g=original
=174	=174	=174
*ped	*	*
8F#)L	8f#'<L/ 8e'< 8A#'<	.
16r	16r	.
(>16C#Jk	16a#k 16c#	.
4FF#	8cc# 8e	.
.	8ee 8g#	.
*Xped	*	*
4A#)	8dd# 8f#	.
.	8cc#J 8e	.
=175	=175	=175
*ped	*	*
(8BB'L	8dd#)L/ 8f#	.
16r	16r	.
16F#Jk	(>16bJk 16d#	.
4B	4dd# 4f#	.
.	8qa#/ 8qff#/	.
*Xped	*	*
4E)	4ee/ 4g#	.
=176	=176	=176
*ped	*	*
8F#'L	8f#)L/ 8e 8A#	.
16r	16r	<
(16C#Jk	(>16a#k 16c#	.
4FF#	8cc# 8e	.
.	8ee 8g#	.
4e 4F#)	8gg# 8b	.
*Xped	*	*
.	8ff#J 8cc# 8a#	.
.	.	[
=177	=177	=177
*ped	*	*
8BB'L	8dd#'<L 8b'< 8d#'<)	.
16r	16r	.
(16F#Jk	(16bJk 16d#	.
4d#	4ff# 4b 4f#	.
*Xped	*	*
4e#X 4c##X)	4gg# 4b	>
=178	=178	=178
8f#L 8d#	8ff#L 8b)	]
16r	16r	.
16f#Jk 16B	(16dd#Jk 16b	.
4f# 4d#	4ff# 4b	.
4e#X 4c##X	4gg# 4b	>
.	.	.
=179	=179	=179
8f#L 8d#	8ff#L 8b)	]
16r	16r	.
16f#Jk 16B	(16dd#Jk 16b	.
4f# 4d#	4ff# 4b	.
*ped	*	*
!LO:N:n=2:acc=n#	!	!
4e#X 4c#X	4gg# 4b	>]
*Xped	*	*
!!LO:LB:g=original
=180	=180	=180
*ped	*	*
8f#L 8F#	8ff#L 8a#)	.
16r	16r	.
*Xped	*	*
16e#XJk 16c#	(16gg#Jk 16b	.
4f# 4F#	4ff# 4a#	.
4e# 4c#	4gg# 4b	>
=181	=181	=181
*ped	*	*
8f# 8F#	8ff#L 8a#)	]
16r	16r	.
*clefG2	*	*
16cc#k 16f#	(>16ff#Jk 16ee	.
*Xped	*	*
4f# 4B	4bb 4dd#	.
4f##X 4d#	4aa#X 4cc#	.
*clefF4	*	*
=182	=182	=182
*	*^	*
8g#>L 8G#	2ryy	8gg#L/ 8b	.
16r	.	16r	.
16a#>J 16d#>	.	16ff##XJk 16cc#	.
4g#> 4G#	.	4gg#/ 4b	.
4e#X 4c#	4aa#	8cc#L	.
.	.	8bJ	.
*	*v	*v	*
=183	=183	=183
8f#>L 8F#	8ff#L/ 8a#	.
16r	16r	.
16g#>Jk 16c#>	16ee#XJk 16b	.
4f#> 4F#	4ff#/ 4a#	.
4d# 4B	4gg#/ 4an	>
=184	=184	=184
*	*^	*
8eL 8E	8eeL/ 8g#	2ryy	]
16r	16r	.	.
*ped	*	*	*
(16c#Jk 16A#X	16cc#Jk 16e	.	.
4AA#	4ee/ 4g#/	.	.
(4A# 4D#)	8dd#L	4f##X	.
.	8cc#J	.	.
*	*v	*v	*
=185	=185	=185
*ped	*	*
8GG#'L)	8b)L 8g# 8B	.
16r	16r	.
16BJk	(>16dd#Jk 16g#	.
*Xped	*	*
4d# 4G#	4gg# 4b	.
*ped	*	*
!slur:problem:pionowy łuk od 4d# do 4BB	!	!
4d# 4BB	4ff# 4an	.
!!LO:LB:g=original
=186	=186	=186
*Xped	*	*
*	*^	*
8eL 8B 8E	8eeL/ 8g#	2ryy	.
16r	16r	.	.
16BJk 16F#	16dd#Jk 16an	.	.
4B 4E	4ee 4g#	.	.
!slur:problem:pionowy łuk od 4c# do 4AA#	!	!	!
4c# 4AA#X	8ff#L	4g#	.
.	8eeJ	.	.
=187	=187	=187	=187
8A#L 8D#	8dd#L 8f##X/	2ryy	.
16r	16r	.	.
16A#Jk 16E	16cc##XJk 16g#	.	.
4A# 4D#	4dd# 4f##	.	.
*ped	*	*	*
!slur:problem:pionowy łuk od 4B# do 4GG#	!	!	!
4B#X 4GG#	4ee	8g#L	.
.	.	8f#XJ	.
*Xped	*	*	*
*	*v	*v	*
=188	=188	=188
8c#L 8C#	8cc#L/ 8e	.
16r	16r	.
*ped	*	*
(>16BJk 16C#	16g#Jk 16e	.
4B 4C#	4ee/ 4g#	.
*Xped	*	*
!slur:problem:pionowy łuk od 4A# do 4FF#	!	!
4A# 4FF#\	8dd#L 8f#	.
.	8cc#J 8e	.
=189	=189	=189
*	*^	*
*ped	*	*	*
8F#'>) 8BB'>	4ryy	8dd#'<)L 8b'</ 8d#'<	.
8r	.	16r	.
.	.	(>16ff#Jk 16b	.
2ryy	8e#XL\	4bb/ 4dd#	.
*	*Xped	*	*
.	8f#	.	.
.	8f##X	4aa#/ 4cc#	.
.	8d#J	.	.
=190	=190	=190	=190
8g#>L	8gg#L 8b	2ryy	.
8d#>	16r	.	.
.	16ff##XJk 16cc#	.	.
8G#	4gg# 4b	.	.
8f#X>	.	.	.
8e#X>	4aa# 4cc#	8cc#L	.
8c#>J	.	8bJ	.
*	*v	*v	*
=191	=191	=191
8f#L	8ff#L/ 8a#	.
8c#	16r	.
.	16ee#XJk 16b	.
8F#	4ff#/ 4a#/	.
8en	.	.
8d#	4gg#y/ 4an	.
8BJ	.	.
!!LO:LB:g=original
=192	=192	=192
*	*^	*
8EL	2ryy	8eeL 8g#	.
8d#	.	16r	.
.	.	16cc#Jk 16e	.
8c#	.	4ee/ 4g#/	.
8A#	.	.	.
8D#	8dd#L	4f##X	.
8A#J	8cc#J	.	.
*	*v	*v	*
=193	=193	=193
8GG#L	8b/L 8g# 8B)	.
16r	16r	.
16Bk	(>16dd#Jk 16g#	.
8B#X	4gg#/ 4bn	.
8c#	.	.
8c##X	4ff#/ 4an	.
8d#J	.	.
=194	=194	=194
*	*^	*
8eL	2ryy	8eeM</L 8g#	.
8B	.	16r	.
.	.	16dd#Jk 16a#	.
8E	.	4ee/ 4g#	.
8d#	.	.	.
8c#	8ff#L	4g#	.
8AA#J	8eeJ	.	.
=195	=195	=195	=195
8D#L	8dd#m</L 8f##X	2ryy	.
8A#	16r	.	.
.	16cc##XJk 16g#	.	.
8d#	4dd# 4f##	.	.
8A#	.	.	.
8B#X	4ee	8g#L	.
8GG#J	.	8f#XJ	.
*	*v	*v	*
=196	=196	=196
8C#L	8cc#/L 8e	.
8Bny	16r	.
.	16g#Jk 16e	.
8BB#X	4ee/ 4g#	.
8C#	.	.
8A#	8dd#L 8f#	.
8FF#J	8cc#J 8e	.
=197	=197	=197
*ped	*	*
8.BBL	8dd#)L 8f#	.
.	16r	.
(16F#Jk	(>16bJk 16d#	.
4B)	4dd# 4f#	>
*Xped	*	*
4E	4ee/ 4g#	.
.	.	.
!!LO:LB:g=original
=198	=198	=198
8F#L	8f#'>/L 8e'> 8A#<'>)	.
16r	16r	]
*ped	*	*
(16C#Jk	(>16a#k 16c#	.
4FF#	8cc# 8e	.
.	8ee 8g#	.
4A#)	8dd# 8f#	.
*Xped	*	*
.	8cc#J 8e	.
=199	=199	=199
*ped	*	*
(8BBL	8dd#L 8f#	.
8F#J	8bJ 8d#	.
8B)	8dd# 8f#	.
*Xped	*	*
8r	8r	.
.	8qa#/ 8qff#	.
4E	4ee/ 4g#/	.
=200	=200	=200
*ped	*	*
8F#L	8f#'>L 8e'> 8A#<'>)	.
16r	16r	.
(>16C#Jk	(>16a#k 16c#	.
4FF#	8cc# 8e	.
.	8ee 8g#	.
4A#	8dd# 8f#	.
.	8cc#J 8e	.
=201	=201	=201
*ped	*	*
8BBL/ 8BBB)	8dd#L 8f#	.
16r	16r	.
16F#Jk	16bJk 16d#	.
4B	4dd# 4f#)	.
(4d#	4bb 4b	>
*Xped	*	*
=202	=202	=202
*ped	*	*
8BBL))	8dd#L 8f#)	]
16r	16r	.
(16F#Jk	(>16bJk 16d#	.
4B)	4dd#) 4f#^	.
*clefG2	*	*
(<4b 4d#	(4fff# 4ff#	.
*Xped	*	*
*clefF4	*	*
=203	=203	=203
*ped	*	*
4F# 4BB)	4b'< 4d#'<)	.
*clefG2	*	*
*	*8va	*
4ff# 4dd# 4b 4f#	4bbb 4bb^<	.
*	*X8va	*
4r	4r	.
*clefF4	*	*
=204	=204	=204
*^	*	*
!	!	!LO:TX:a:t=loco.	!
4BB[<	<8.BB[L	(>8.d#L 8.F#<	f
.	[16FF#Jk	16B<J [16D#<	.
2ryy	2BB] 2FF#] 2BBB	2d# 2F#< 2D#<])	.
*v	*v	*	*
==	==	==
*-	*-	*-
!!!title: @{OTL}; @{OPS} @{ONM} publisher: @{PPR}
!!!RDF**kern: > = above
!!!RDF**kern: < = below
!!!RDF**dynam: < = "cresc.", fontstyle="italic"
!!!ENC: Leszek Kubiak
!!!END: 2018-06-08
!!!EED: Wojciech Jakubiak-Danek
!!!EST: revision finished 2018-06-17
!!!EED2: Emilia Ziętek
!!!EST2: revision finished 2019-05-22
!!!rism-genre: Mazurka
!!!rism-key: B major
!!!rism-opus: op.  56, no. 1
!!!rism-title: Mazurka in B major op.  56, no. 1
!!!rism-permalink: https://opac.rism.info/search?id=1001007668&View=rism
!!!rism-773a-OPR: 1001007620
!!!rism-parent-permalink: https://opac.rism.info/search?id=1001007620&View=rism
